X:7
T:Kabesul
O:Vlaanderen
M:2/4
L:1/8
P:A
K:D
F>E FG | A z F z | B z F z | A ^G =G2 | 
E>^D EF | G z E z | c z B z | B_B A2 |
F>E FG | A z F z | B z F z | A ^G =G2 |
E>^D EF | G2 A2 | B>d ce | d z d z |
P:B
K:A
c2 B>A | GB AF | E4- | E>F G>A | B4- | BE G>B | c4 | A z F/G/A/B/ |
c2 B>A | GB AG | F4- | FG AB | E3 c | c3 B | A4- | A2 z2 |
P:C
K:D
Af/e/ dF | BA A2 | Af/e/ dF | BA A2 |
Af/e/ ^de | Af/e/ cd | BB/c/ df | ea/a/ aa |
Af/e/ dF | BA A2 | Af/e/ dF | BA A2 |
Af/e/ ^de | Af/e/ dc | BB/c/ de | d z d z |
P:D
|: f2 f>e | d2 c>d | ed cB | A2-A z |
A2 g>f | e2-e z | A2 f>e | d2-d z |
f2 f>e | d2 c>d | ed cd | B2-B z |
B2 c>d | AB cd | ef ge | d2 d z :|
